X:1
T: Mark Fuglem's Departure for Calgary
C:Bruce Shawyer
R:Reel
Q:232
K:Am
M:4/4
L:1/8
|:E2|"Am"A2AB cBAc|"G"B2Bc dcBd|"Am"c2cB ABcA|"E"BA^G^F E2E2|
"Am"A2AB cBAc|"G"B2Bc dcBd|"Am"cBAc "E7"BA^GB|"Am"A4A2:|
|:e2|"Am"a2ag egae|"G"g2ge dege|"1Am 2F"a2ag egae|"Em"g4e4|
"Am"a2ag egae|"G"g2ge dege|"1Am 2F"aged "E7"edBe|"Am"A4A2:|
